pro/src/icons/stroke-accessibility-leg.svg

<svg width="48" height="48" viewBox="0 0 48 48" fill="none" xmlns="http://www.w3.org/2000/svg">
<path id="icon" fill-rule="evenodd" clip-rule="evenodd" d="M14.6885 6.96082C14.6885 5.81246 15.6242 4.88153 16.7785 4.88153C17.9328 4.88153 18.8685 5.81246 18.8685 6.96082C18.8685 8.10917 17.9328 9.0401 16.7785 9.0401C15.6242 9.0401 14.6885 8.10917 14.6885 6.96082ZM16.7785 2.89178C14.5196 2.89178 12.6885 4.71355 12.6885 6.96082C12.6885 9.20808 14.5196 11.0299 16.7785 11.0299C19.0373 11.0299 20.8685 9.20808 20.8685 6.96082C20.8685 4.71355 19.0373 2.89178 16.7785 2.89178ZM13.0857 16.704C12.7816 14.2708 14.6859 12.1243 17.148 12.1243C19.2078 12.1243 20.9551 13.6468 21.2098 15.6878L22.8123 27.515H29.338C30.1469 27.515 30.9232 27.8243 31.5051 28.4033L37.408 34.2759L39.7909 31.9052C40.1814 31.5167 40.8146 31.5167 41.2051 31.9052C41.5957 32.2938 41.5957 32.9237 41.2051 33.3122L38.1151 36.3864C37.7246 36.7749 37.0914 36.7749 36.7009 36.3864L30.0909 29.8102C29.8929 29.6132 29.6292 29.5047 29.338 29.5047H17.528C15.984 29.5047 14.6822 28.3566 14.4867 26.8397L13.0857 16.704ZM20.7942 27.515H17.528C16.9941 27.515 16.5373 27.1141 16.4702 26.5845L15.0697 16.4528C14.9175 15.2073 15.8921 14.114 17.148 14.114C18.2062 14.114 19.0973 14.8965 19.2255 15.9363L20.7942 27.515ZM9.79826 23.032C10.2766 23.3066 10.4405 23.9151 10.1644 24.3909C6.74065 30.292 8.77635 37.8416 14.7083 41.2481C20.6397 44.6543 28.2282 42.629 31.6523 36.7275C31.9284 36.2517 32.5399 36.0886 33.0183 36.3633C33.4966 36.6379 33.6605 37.2464 33.3844 37.7223C29.4085 44.575 20.597 46.9272 13.7084 42.9714C6.82034 39.0158 4.45605 30.2495 8.43227 23.3962C8.70837 22.9204 9.31994 22.7573 9.79826 23.032Z" fill="currentColor"/>
</svg>

<svg xmlns="http://www.w3.org/2000/svg" width="48" height="48" fill="none"><path id="icon" fill="currentColor" fill-rule="evenodd" d="M14.689 6.96c0-1.148.935-2.078 2.09-2.078s2.09.93 2.09 2.079c0 1.148-.936 2.08-2.09 2.08-1.155 0-2.09-.932-2.09-2.08m2.09-4.068c-2.26 0-4.09 1.822-4.09 4.069s1.83 4.069 4.09 4.069c2.258 0 4.09-1.822 4.09-4.07 0-2.246-1.832-4.068-4.09-4.068m-3.693 13.812c-.304-2.433 1.6-4.58 4.062-4.58 2.06 0 3.807 1.523 4.062 3.564l1.602 11.827h6.526c.809 0 1.585.31 2.167.888l5.903 5.873 2.383-2.37a1.004 1.004 0 0 1 1.414 0 .99.99 0 0 1 0 1.406l-3.09 3.074a1.004 1.004 0 0 1-1.414 0l-6.61-6.576a1.05 1.05 0 0 0-.753-.305h-11.81a3.066 3.066 0 0 1-3.041-2.665zm7.708 10.811h-3.266c-.534 0-.99-.4-1.058-.93l-1.4-10.132a2.088 2.088 0 0 1 2.078-2.339c1.058 0 1.95.782 2.078 1.822zM9.798 23.032a.99.99 0 0 1 .366 1.359c-3.423 5.901-1.388 13.45 4.544 16.857s13.52 1.381 16.944-4.52a1.003 1.003 0 0 1 1.366-.365.99.99 0 0 1 .366 1.36c-3.976 6.852-12.787 9.204-19.676 5.248C6.82 39.016 4.456 30.25 8.432 23.396a1.003 1.003 0 0 1 1.366-.364" clip-rule="evenodd"/></svg>
